X:1
T:The Well-Tempered Clavier Book II - XX
T:BWV 889    (A = 415 Hz)
T:J. S. Bach
%%score { ( 1 3 ) | 2 }
L:1/8
Q:1/4=80
M:4/4
K:C
V:1 treble nm="Harp"
V:3 treble 
V:2 bass 
V:1
"^Praeludium" z/4 c/4d/4e/4f/c/ B/^d/e/_B/ A/^c/=d/^G/- G/A=B/ | EA ^G=G ^F^E =ED- | %2
 D/C/4B,/4C/A/- A/^G/e/=G/- G/F/4E/4^D/B/- B/^A/^f/=A/- | %3
 A/4G/4A/4B/4c/G/ ^F/^A/B/=F/ E/^G/=A/^D/- D/E^F/ | De ^d=d ^c=c BA- | %5
 A/G/4^F/4G/e/- e/^d/b/=d/- d/c/4B/4c/A/ B^c | d/D/d- d/^c/a/=c/- c/B/4A/4B/G/ AB | %7
 cc' b_b a_a gf- | f/4B/4c/4d/4e/B/ ^A/^c/d/=A/ ^G/B/=c/=G/- G/^FG/4A/4 | DG AB cA B^c | %10
 dD ^C=C[I:staff +1] B,_B, A,G,- | %11
 G,/F,/4E,/4F,/[I:staff -1]D/- D/^C/A/=C/- C/B,/4A,/4^G,/E/- E/^D/B/=D/- | %12
 D/4C/4D/4E/4F/C/ B,/^D/E/_B,/ A,/^C/=D/^G,/- G,/A,=B,/ | E,E ^F^G A/A,/A- A/G/e/=G/- | %14
 G/^F/4E/4F/D/ EF G/G,/G- G/F/d/=F/- | F/E/4D/4E/e/- e/f/4e/4d/4c/4B/4A/4 ^G4 | %16
 z/4 c/4d/4e/4f/c/ B/^d/e/_B/ A/^c/=d/^G/- G/A=B/ | EA ^G=G ^F^E =ED- | %18
 D/C/4B,/4C/A/- A/^G/e/=G/- G/F/4E/4^D/B/- B/^A/^f/=A/- | %19
 A/4G/4A/4B/4c/G/ ^F/^A/B/=F/ E/^G/=A/^D/- D/E^F/ | De ^d=d ^c=c BA- | %21
 A/G/4^F/4G/e/- e/^d/b/=d/- d/c/4B/4c/A/ B^c | d/D/d- d/^c/a/=c/- c/B/4A/4B/G/ AB | %23
 cc' b_b a_a gf- | f/4B/4c/4d/4e/B/ ^A/^c/d/=A/ ^G/B/=c/=G/- G/^FG/4A/4 | DG AB cA B^c | %26
 dD ^C=C[I:staff +1] B,_B, A,G,- | %27
 G,/F,/4E,/4F,/[I:staff -1]D/- D/^C/A/=C/- C/B,/4A,/4^G,/E/- E/^D/B/=D/- | %28
 D/4C/4D/4E/4F/C/ B,/^D/E/_B,/ A,/^C/=D/^G,/- G,/A,=B,/ | E,E ^F^G A/A,/A- A/G/e/=G/- | %30
 G/^F/4E/4F/D/ EF G/G,/G- G/F/d/=F/- | F/E/4D/4E/e/- e/f/4e/4d/4c/4B/4A/4 ^G4 | eE ^E^F G^G AB | %33
 c/4f/4e/4d/4^c/^f/ g/_e/d/^g/ a/=f/=e/_b/- b/ag/ | %34
 a/4g/4f/4e/4f/_B/ A/e/d/^G/- G/4d/4c/4=B/4A/e/ d/=G/^F/c/ | Bg fe df ed- | dc/B/ c^c d^d e^f | %37
 g/4f/4e/4d/4^c/^g/ a/_e/d/^a/ b/f/=e/d/- d/=cB/- | B/A/4B/4c/^D/ E/^c/d/^E/ Gdc_B- | %39
 B/4A/4G/4A/4_B/^C/ D/=B/c/E/ Fc B_A- | A/4G/4=A/4B/4c/G/ ^F/^A/B/=F/ E/^G/=A/^D/- D/EF/ | %41
 B,e f^f g^g ab- | b/a/4b/4c'/e/- e/^d/b/=d/- d/4c/4d/4e/4f/A/- A/^G/e/=G/- | %43
 G/4F/4G/4A/4_B/D/- D/^C/A/=C/- C/B,/^G/B,/- B,/A,/F/A,/- | %44
 A,/^G,/4^F,/4G,/D/- D/4C/4B,/4A,/4B,/F/- F/4E/4D/4^C/4D/B/- B/4A/4^G/4^F/4G/d/- | %45
 d/c/4B/4c/A/ _B=B c^c de- | e/4^c/4d/4e/4f/=c/ B/^d/e/_B/ A/^c/=d/^G/- G/A=B/ | %47
 E/e/-e/4d/4c/4B/4 d/4c/4B/4A/4c/4B/4A/4^G/4 A/4G/4A3/2- A2 | eE ^E^F G^G AB | %49
 c/4f/4e/4d/4^c/^f/ g/_e/d/^g/ a/=f/=e/_b/- b/ag/ | %50
 a/4g/4f/4e/4f/_B/ A/e/d/^G/- G/4d/4c/4=B/4A/e/ d/=G/^F/c/ | Bg fe df ed- | dc/B/ c^c d^d e^f | %53
 g/4f/4e/4d/4^c/^g/ a/_e/d/^a/ b/f/=e/d/- d/=cB/- | B/A/4B/4c/^D/ E/^c/d/^E/ Gdc_B- | %55
 B/4A/4G/4A/4_B/^C/ D/=B/c/E/ Fc B_A- | A/4G/4=A/4B/4c/G/ ^F/^A/B/=F/ E/^G/=A/^D/- D/EF/ | %57
 B,e f^f g^g ab- | b/a/4b/4c'/e/- e/^d/b/=d/- d/4c/4d/4e/4f/A/- A/^G/e/=G/- | %59
 G/4F/4G/4A/4_B/D/- D/^C/A/=C/- C/B,/^G/B,/- B,/A,/F/A,/- | %60
 A,/^G,/4^F,/4G,/D/- D/4C/4B,/4A,/4B,/F/- F/4E/4D/4^C/4D/B/- B/4A/4^G/4^F/4G/d/- | %61
 d/c/4B/4c/A/ _B=B c^c de- | e/4^c/4d/4e/4f/=c/ B/^d/e/_B/ A/^c/=d/^G/- G/A=B/ | %63
 E/e/-e/4d/4c/4B/4 d/4c/4B/4A/4c/4B/4A/4^G/4 A/4G/4A3/2- !fermata!A2 | z8 | %65
[M:4/4][Q:1/4=80]"^Fuga" z8 | z8 | z2 A2 G2 c2 | ^D2 z2 z A^FB | GE^CA FDB,G | z2 e2 c2 f2 | %71
 ^G2 z2 z dBe | cA^Fd BGEc | AB c2- c/4c/4d/4e/4f/4e/4d/4c/4 B2 | %74
 z c'/4b/4a/4g/4 fa/4g/4f/4e/4 d/4e/<f/e/4d/4c/4 B/4c/<d/c/4B/4A/4 | %75
 G3/2A/4B/4 c/4B/4c/4B/4c/4B/4A/4B/4 c2 z2 | z GEA ^F3/2F/4^G/4 A/4G/4A/4G/4A/4G/4F/4G/4 | %77
 A/B/4c/4d/4e/4^f/4^g/4 a2 =g2 c'2 | ^d2 z z2 a^fb | ge^ca f z/4 d/4e/4f/4 g z/4 f/4e/4d/4 | %80
 c z/4 e/4f/4g/4 a/4_b/4a/4g/4f/4e/4d/4c/4 B/4c/4B/4A/4^G/4^F/4E/4D/4 Cc | B4- B/E/A- A/A,/D- | %82
 DfBd ^G2 B2- | Be/4d/4c/4B/4 A/^c/4e/4g f z z2 | z/ d/4c/4B/c/4d/4 Gf e z z2 | z2 a2 f2 _b2 | %86
 ^c2 z2 z gea | fd z2 z fdg | ecAf dB^Ge | %89
 c2- c z z/4 B/4c/4d/4e/4^f/4^g/4a/4 b/4a/4g/4f/4e/4d/4c/4B/4 | %90
 e/4d/4c/4B/4A/4^G/4^F/4E/4 A/4=G/4=F/4E/4D/4C/4B,/4A,/4 F/4 z/4 z/ z z2 | %91
 z z/4 E/4^F/4^G/4 A/4G/4A/4G/4A/4G/4F/4G/4 A4- | ABE^G !fermata!A4 |] %93
V:2
 A,,A, ^G,=G, ^F,=F, E,D,- | %1
 D,/4C,/4D,/4E,/4F,/C,/ B,,/^D,/E,/_B,,/ A,,/^C,/=D,/^G,,/- G,,/A,,=B,,/ | %2
 E,,A,, B,,^C, D,B,, C,^D, | E,E ^D=D ^C=C B,A,- | %4
 A,/4G,/4A,/4B,/4C/G,/ ^F,/^A,/B,/=F,/ E,/^G,/=A,/^D,/- D,/E,^F,/ | %5
 B,,E, ^F,^G, A,/A,,/A,- A,/G,/E/=G,/- | G,/^F,/4E,/4F,/D,/ E,F, G,/G,,/G,- G,/F,/D/=F,/- | %7
 F,/4E,/4F,/4G,/4A,/E,/ ^D,/^F,/G,/=D,/ ^C,/E,/=F,/=C,/- C,/B,,C,/4D,/4 | %8
 G,,G, ^F,=F, E,_E, D,C,- | %9
 C,/B,,/4A,,/4B,,/G,/- G,/^F,/B,/=F,/- F,/E,/4D,/4^C,/A,/- A,/^G,/E/=G,/- | %10
 G,/4^F,/4G,/4A,/4_B,/=F,/ E,/^G,/A,/_E,/ D,/^F,/=G,/^C,/- C,/D,=E,/ | A,,D, E,^F, G,E, F,^G, | %12
 A,/A,,/A, ^G,=G, ^F,=F, E,D,- | D,/C,/4B,,/4C,/E,/- E,/^D,/B,/=D,/- D,/^C,/4B,,/4C,/A,,/ B,,C, | %14
 D,/D,,/D,- D,/^C,/A,/=C,/- C,/B,,/4A,,/4B,,/G,,/ A,,B,, | %15
 D,/4C,/4D,/4D,/4C,/4D,/4B,,/4A,,/4 E,/4F,/4G,/4F,/4G,/4F,/4G,/4F,/4 E,/4[I:staff -1] E/4D/4[I:staff +1]C/4B,/4A,/4^G,/4^F,/4 E,E,, | %16
 A,,A, ^G,=G, ^F,=F, E,D,- | %17
 D,/4C,/4D,/4E,/4F,/C,/ B,,/^D,/E,/_B,,/ A,,/^C,/=D,/^G,,/- G,,/A,,=B,,/ | %18
 E,,A,, B,,^C, D,B,, C,^D, | E,E ^D=D ^C=C B,A,- | %20
 A,/4G,/4A,/4B,/4C/G,/ ^F,/^A,/B,/=F,/ E,/^G,/=A,/^D,/- D,/E,^F,/ | %21
 B,,E, ^F,^G, A,/A,,/A,- A,/G,/E/=G,/- | G,/^F,/4E,/4F,/D,/ E,F, G,/G,,/G,- G,/F,/D/=F,/- | %23
 F,/4E,/4F,/4G,/4A,/E,/ ^D,/^F,/G,/=D,/ ^C,/E,/=F,/=C,/- C,/B,,C,/4D,/4 | %24
 G,,G, ^F,=F, E,_E, D,C,- | %25
 C,/B,,/4A,,/4B,,/G,/- G,/^F,/B,/=F,/- F,/E,/4D,/4^C,/A,/- A,/^G,/E/=G,/- | %26
 G,/4^F,/4G,/4A,/4_B,/=F,/ E,/^G,/A,/_E,/ D,/^F,/=G,/^C,/- C,/D,=E,/ | A,,D, E,^F, G,E, F,^G, | %28
 A,/A,,/A, ^G,=G, ^F,=F, E,D,- | D,/C,/4B,,/4C,/E,/- E,/^D,/B,/=D,/- D,/^C,/4B,,/4C,/A,,/ B,,C, | %30
 D,/D,,/D,- D,/^C,/A,/=C,/- C,/B,,/4A,,/4B,,/G,,/ A,,B,, | %31
 D,/4C,/4D,/4D,/4C,/4D,/4B,,/4A,,/4 E,/4F,/4G,/4F,/4G,/4F,/4G,/4F,/4 E,/4[I:staff -1] E/4D/4[I:staff +1]C/4B,/4A,/4^G,/4^F,/4 E,E,, | %32
 z/4 C/4B,/4A,/4^G,/^C/ D/_B,/A,/^D/ E/=C/=B,/F/- F/E=D/ | AA, ^A,B, C^C DE | ^ED CB, A,C B,A, | %35
 G,/4B,/4C/4D/4E/_B,/ A,/D/^C/G,/- G,/4G/4F/4E/4D/^G/ A/=C/=B,/F/ | %36
 E/4D/4C/4B,/4A,/^G,/ A,/F,/E,/^A,/ B,/=G,/^F,/C/- C/B,=A,/ | EE, F,^F, G,^G, A,B, | %38
 CA, G,F, E,/4F,/4G,/4A,/4_B,/F,/ E,/A,/G,/D,/ | %39
 ^C,G, F,_E, D,/4E,/4F,/4G,/4_A,/E,/ D,/G,/F,/=C,/ | B,,E, ^D,=D, ^C,=C, B,,A,,- | %41
 A,,/4C,/4B,,/4A,,/4^G,,/^C,/ D,/_B,,/A,,/^D,/ F,/=C,/=B,,/F,/- F,/E,=D,/ | %42
 C,E, ^F,^G, A,A,, B,,^C, | D,D,, E,,E, ^D,=D, ^C,=C, | B,,B,, A,,A,, ^G,, G,,E,,E,, | %45
 A,,-A,,/4D,/4E,/4^F,/4 G,/_E,/D,/^G,/ A,/=F,/=E,/_B,/- B,/A,=G,/ | %46
 F,/4E,/4F,/4G,/4A, ^G,=G, ^F,=F, E,D,- | %47
 D,/C,/4B,,/4C,/A,,/ E,/4D,/4E,/E,, A,,/B,,/4C,/4D,/4E,/4^F,/4^G,/4 A,A,, | %48
 z/4 C/4B,/4A,/4^G,/^C/ D/_B,/A,/^D/ E/=C/=B,/F/- F/E=D/ | AA, ^A,B, C^C DE | ^ED CB, A,C B,A, | %51
 G,/4B,/4C/4D/4E/_B,/ A,/D/^C/G,/- G,/4G/4F/4E/4D/^G/ A/=C/=B,/F/ | %52
 E/4D/4C/4B,/4A,/^G,/ A,/F,/E,/^A,/ B,/=G,/^F,/C/- C/B,=A,/ | EE, F,^F, G,^G, A,B, | %54
 CA, G,F, E,/4F,/4G,/4A,/4_B,/F,/ E,/A,/G,/D,/ | %55
 ^C,G, F,_E, D,/4E,/4F,/4G,/4_A,/E,/ D,/G,/F,/=C,/ | B,,E, ^D,=D, ^C,=C, B,,A,,- | %57
 A,,/4C,/4B,,/4A,,/4^G,,/^C,/ D,/_B,,/A,,/^D,/ F,/=C,/=B,,/F,/- F,/E,=D,/ | %58
 C,E, ^F,^G, A,A,, B,,^C, | D,D,, E,,E, ^D,=D, ^C,=C, | B,,B,, A,,A,, ^G,,G,, E,,E,, | %61
 A,,-A,,/4D,/4E,/4^F,/4 G,/_E,/D,/^G,/ A,/=F,/=E,/_B,/- B,/A,=G,/ | %62
 F,/4E,/4F,/4G,/4A, ^G,=G, ^F,=F, E,D,- | %63
 D,/C,/4B,,/4C,/A,,/ E,/4D,/4E,/E,, A,,/B,,/4C,/4D,/4E,/4^F,/4^G,/4 A,!fermata!A,, | z8 | %65
[M:4/4] z2 E2 C2 F2 | ^G,2 z2 z DB,E | CA,^F,^D E,E/4=D/4C/4B,/4 A,C/4B,/4A,/4G,/4 | %68
 ^F,/4G,/<A,/G,/4F,/4E,/4 ^D,/4E,/<F,/E,/4D,/4^C,/4 B,,3/2C,/4D,/4 E,/4D,/4E,/4D,/4E,/4D,/4C,/4D,/4 | %69
 E, z/4 E,/4F,/4G,/4 A, z/4 G,/4F,/4E,/4 D, z/4 D,/4E,/4F,/4 G, z/4 F,/4E,/4D,/4 | %70
 C,>D, E,/F,/4E,/4D,/E,/ F,2 z2 | z F,B,,D, ^G,,B,, E,2 | A,, z z ^F, G, z z E, | %73
 F,G,A,G, F,D,G,F, | E,2 A,2 B,,2 z2 | z F,D,G, E,3/2E,/4^F,/4 G,/4F,/4G,/4F,/4G,/4F,/4E,/4F,/4 | %76
 G,E, A,2 z D, B,,E, | C,A,,^F,,D, E,, z z2 | z C^F,A, ^D,F, B,2 | %79
 E, z/4 E,,/4F,,/4G,,/4 A,, z/4 G,,/4F,,/4E,,/4 D,, z z2 | z A, F,D ^G,E, A,2- | %81
 A,/4A,/4B,/4C/4D/4C/4B,/4A,/4 ^G,/4A,/4G,/4^F,/4E,/4D,/4C,/4B,,/4 A,,A,/4=G,/4=F,/4E,/4 D,F,/4E,/4D,/4C,/4 | %82
 B,,/4C,/<D,/C,/4B,,/4A,,/4 ^G,,/4A,,/<B,,/A,,/4G,,/4^F,,/4 E,,3/2F,,/4G,,/4 A,,/4G,,/4A,,/4G,,/4A,,/4G,,/4F,,/4G,,/4 | %83
 A,,3/2B,,/4C,/4 D,/4^C,/4D,/4C,/4D,/4C,/4B,,/4C,/4 D,3/2E,/4F,/4 G,/4^F,/4G,/4F,/4G,/4F,/4E,/4F,/4 | %84
 G,3/2A,/4B,/4 C/4B,/4C/4B,/4C/4B,/4A,/4B,/4 C3/2D/4E/4 F/4E/4F/4E/4F/4E/4D/4E/4 | %85
 F3/2G/4A/4 B/4A/4B/4A/4B/4A/4G/4A/4 _B/_B,/4C/4D/4C/4B,/4A,/4 G,/4F,/4G,/4A,/4B,/4A,/4G,/4F,/4 | %86
 E,/4F,/<G,/F,/4E,/4D,/4 ^C,/4D,/<E,/D,/4C,/4B,,/4 A,,3/2B,,/4C,/4 D,/4C,/4D,/4C,/4D,/4C,/4B,,/4C,/4 | %87
 D,/4E,/<F,/E,/4D,/4C,/4 B,,/4C,/<D,/C,/4B,,/4A,,/4 G,,3/2A,,/4B,,/4 C,/4-B,,/4C,/4B,,/4C,/4B,,/4A,,/4B,,/4 | %88
 C, z/4 C/4D/4E/4 F z/4 E/4D/4C/4 B, z/4 B,,/4C,/4D,/4 E, z/4 D,/4C,/4B,,/4 | %89
 A,,/B,,/4C,/4D,/4E,/4^F,/4^G,/4 A,2- A,G,/F,/ E,D, | C,2 F,2 ^G,,2 z2 | z D,, B,,E, C,A,,E,,G,, | %92
 F,,/4E,,/4D,,E,,/4F,,/4 F,,/4E,,/4F,,/4E,,/4F,,/4E,,/4D,,/4E,,/4 !fermata!G,,,4 |] %93
V:3
 x8 | x8 | x8 | x8 | x8 | x8 | x8 | x8 | x8 | x8 | x8 | x8 | x8 | x8 | x8 | x8 | x8 | x8 | x8 | %19
 x8 | x8 | x8 | x8 | x8 | x8 | x8 | x8 | x8 | x8 | x8 | x8 | x8 | x8 | x8 | x8 | x8 | x8 | x8 | %38
 x8 | x8 | x8 | x8 | x8 | x8 | x8 | x8 | x8 | x8 | x8 | x8 | x8 | x8 | x8 | x8 | x8 | x8 | x8 | %57
 x8 | x8 | x8 | x8 | x8 | x8 | x8 | x8 |[M:4/4] x8 | x8 | x8 | x8 | x8 | %70
 E A2 ^G[I:staff +1] A,A/4=G/4F/4E/4 DF/4E/4D/4C/4 | %71
[I:staff -1] B,/4C/<D/C/4B,/4A,/4 ^G,/4A,/<B,/A,/4G,/4^F,/4[I:staff +1] E,3/2^F,/4^G,/4 A,/4G,/4A,/4G,/4A,/4G,/4F,/4G,/4 | %72
 A,[I:staff -1] z/4[I:staff +1] A,/4B,/4C/4 D[I:staff -1] z/4[I:staff +1] C/4B,/4A,/4 G,[I:staff -1] z/4[I:staff +1] G,/4A,/4B,/4 C _B,/4A,/4G,/4[I:staff -1] z/4 | %73
[I:staff +1] F,/[I:staff -1]FF/- F/4E/4F/4G/4A/4G/4F/4E/4 D2- D/4E/4F/4G/4F/4E/4D/4C/4 | %74
 CG,CF z A[I:staff +1] DF | B,D[I:staff -1]F[I:staff +1]D[I:staff -1] GCA,D | %76
[I:staff +1] B,3/2B,/4^C/4 D/4C/4D/4C/4D/4C/4B,/4C/4 D2[I:staff -1] z2 | %77
 z2 z/ c/B/^f/- f/B/e/4d/4c/4B/4 Ac/4B/4A/4G/4 | %78
 ^F/4G/<A/G/4F/4E/4 ^D/4E/<F/E/4D/4^C/4[I:staff +1] B,3/2C/4D/4 E/4D/4E/4D/4E/4D/4C/4D/4 | %79
 E[I:staff -1] z z2 z[I:staff +1] DB,G | E[I:staff -1] z z2 z2 z/4 E/4=F/4=G/4A/4G/4F/4E/4 | %81
 DFB,D C2 F2 |[I:staff +1] ^G,2[I:staff -1] z2 z D B,E | C z z2 z A/4G/4F/4E/4 D/^F/4A/4=c | %84
 B z z2 z/ G/4F/4E/F/4G/4 C_B | A/B/4^c/4d- dc d2 z2 | z _BEG ^Ce A2- | AADF B,d G2- | %88
 G z z2 z DB,^G | A2 z/4 B/4A/4G/4F/4E/4D/4C/4[I:staff +1] DB,/A,/ ^G,2 | %90
 A,2[I:staff -1] z2 z/4[I:staff +1] E/4D/4C/4B,/4A,/4^G,/4^F,/4 D/4C/4B,/4A,/4G,/4F,/4E,/4^D,/4 | %91
 E,[I:staff -1] z z2 z z/4 B,/4C/4D/4 D/4^C/4D/4C/4D/4C/4B,/4C/4 | DF^G,B, ^C4 |] %93

